packages/kronos-fna-icons/src/cog.svg

<?xml version="1.0" encoding="UTF-8"?>
<svg width="20px" height="20px" viewBox="0 0 20 20" version="1.1" xmlns="http://www.w3.org/2000/svg" xmlns:xlink="http://www.w3.org/1999/xlink">
    <!-- Generator: Sketch 50.2 (55047) - http://www.bohemiancoding.com/sketch -->
    <title>cog</title>
    <desc>Created with Sketch.</desc>
    <defs></defs>
    <g id="cog" stroke="none" stroke-width="1" fill="none" fill-rule="evenodd">
        <path d="M20,11.230625 C20,11.230625 20,9.44033751 20,8.730625 L20,8.730625 L17.011875,7.485625 C16.92875,7.25125 16.84125,7.024375 16.73375,6.801875 L17.94,3.79875 L16.171875,2.03125 L13.195625,3.256875 C12.96875,3.146875 12.736875,3.054375 12.4975,2.96875 L11.230625,0 L8.730625,0 L7.495,2.95875 C7.24625,3.046875 7.006875,3.139375 6.77,3.251875 L3.79875,2.058125 L2.03125,3.825625 L3.2425,6.77 C3.125,7.011875 3.03,7.258125 2.939375,7.5125 L1.77635684e-15,8.769375 L1.77635684e-15,11.269375 L2.941875,12.495 C3.0325,12.74875 3.13,12.995625 3.246875,13.2375 L2.058125,16.20125 L3.825625,17.96875 L6.7775,16.753125 C7.014375,16.865625 7.25625,16.955625 7.505,17.04125 L8.769375,20 L11.269375,20 L12.506875,17.02625 C12.74375,16.938125 12.978125,16.845625 13.2025,16.738125 L16.200625,17.939375 L17.968125,16.171875 L16.7375,13.18875 C16.8425,12.964375 16.928125,12.736875 17.01125,12.505 L20,11.230625 L20,11.230625 Z M9.980625,13.75 C7.910625,13.75 6.230625,12.07 6.230625,10 C6.230625,7.93 7.910625,6.25 9.980625,6.25 C12.050625,6.25 13.730625,7.93 13.730625,10 C13.730625,12.07 12.050625,13.75 9.980625,13.75 L9.980625,13.75 Z" id="Shape-Copy-2" fill="#000000"></path>
    </g>
</svg>

<svg version="1.1" xmlns="http://www.w3.org/2000/svg" width="20" height="20" viewBox="0 0 20 20">
<title>cog</title>
<path d="M20 11.231c0 0 0-1.79 0-2.5v0l-2.988-1.245c-0.083-0.234-0.171-0.461-0.278-0.684l1.206-3.003-1.768-1.768-2.976 1.226c-0.227-0.11-0.459-0.203-0.698-0.288l-1.267-2.969h-2.5l-1.236 2.959c-0.249 0.088-0.488 0.181-0.725 0.293l-2.971-1.194-1.767 1.768 1.211 2.944c-0.117 0.242-0.212 0.488-0.303 0.743l-2.939 1.257v2.5l2.942 1.226c0.091 0.254 0.188 0.501 0.305 0.742l-1.189 2.964 1.768 1.767 2.952-1.216c0.237 0.113 0.479 0.203 0.728 0.288l1.264 2.959h2.5l1.237-2.974c0.237-0.088 0.471-0.181 0.696-0.288l2.998 1.201 1.768-1.767-1.231-2.983c0.105-0.224 0.191-0.452 0.274-0.684l2.989-1.274zM9.981 13.75c-2.070 0-3.75-1.68-3.75-3.75s1.68-3.75 3.75-3.75c2.070 0 3.75 1.68 3.75 3.75s-1.68 3.75-3.75 3.75v0z"></path>
</svg>
